X: 3
T: Farewell To Chernobyl
R: reel
M: 4/4
L: 1/8
K: Emin
E2 EG BEGB | EGBG AGFE | B,2 B,D FB,DF | B,DFD dAFD |E3 G BEGB | EGBE GAB^c | d2 Ad FdAd | gfed e2 :|e2 ge aege | e2 ge agfd | e2 ge aege | f2 fg feBd |1 e2 ge aege | e2 ge agfa | b2 bg b2 fg | f2 fg fe :|2 Bege Bege | cege cege | dfaf bagf | gfed e2 ||E2 GE BE G/A/B | EGBG AGFE | D2 FD AD F/G/A | DFdA BAGF |E3 G BEGB | EGBE F/G/A B^c | d/e/d Ad FdAf | gfe^d e2 :|e/e/e ge bege | e/e/e ge fgfB | e/e/e ge aegB | f/f/f ge fB^dB |1 ~e2 ge b ~e3 | ~e2 ge agfa | ~b3 a b ~g3 | ~f3 g fB :|2 ~e2 Ge Bege | cege c ~e3 | d/e/d Af bagf | a/g/f e^d e2 ||


Tune 767	Setting 13884

